picto/light.svg

<svg class="color-immutable" width="24" height="24" viewBox="0 0 24 24" fill="none" xmlns="http://www.w3.org/2000/svg"><path d="M0 22.5V1.5C0 0.675 0.675 0 1.5 0H22.5C23.325 0 24 0.675 24 1.5V22.5C24 23.325 23.325 24 22.5 24H1.5C0.675 24 0 23.325 0 22.5Z" fill="#2D327D"/><path d="M5.63597 18.739C5.53997 18.739 5.44397 18.702 5.37097 18.629C5.22497 18.483 5.22497 18.245 5.37097 18.099L6.96197 16.508C7.10797 16.362 7.34597 16.362 7.49197 16.508C7.63797 16.654 7.63797 16.892 7.49197 17.038L5.90097 18.629C5.82797 18.702 5.73197 18.739 5.63597 18.739Z" fill="white"/><path d="M18.364 18.739C18.268 18.739 18.172 18.702 18.099 18.629L16.508 17.038C16.362 16.892 16.362 16.654 16.508 16.508C16.654 16.362 16.892 16.362 17.038 16.508L18.629 18.099C18.775 18.245 18.775 18.483 18.629 18.629C18.556 18.702 18.46 18.739 18.364 18.739Z" fill="white"/><path d="M5.25 12.375H3C2.793 12.375 2.625 12.207 2.625 12C2.625 11.793 2.793 11.625 3 11.625H5.25C5.457 11.625 5.625 11.793 5.625 12C5.625 12.207 5.457 12.375 5.25 12.375Z" fill="white"/><path d="M21 12.375H18.75C18.543 12.375 18.375 12.207 18.375 12C18.375 11.793 18.543 11.625 18.75 11.625H21C21.207 11.625 21.375 11.793 21.375 12C21.375 12.207 21.207 12.375 21 12.375Z" fill="white"/><path d="M12 21.375C11.793 21.375 11.625 21.207 11.625 21V18.75C11.625 18.543 11.793 18.375 12 18.375C12.207 18.375 12.375 18.543 12.375 18.75V21C12.375 21.207 12.207 21.375 12 21.375Z" fill="white"/><path d="M14.474 7.181V6.75H9.52598V7.181C9.52598 7.791 9.27298 8.37 8.83898 8.799C7.96698 9.66 7.44498 10.873 7.50498 12.208C7.60898 14.515 9.47798 16.387 11.785 16.495C14.368 16.616 16.5 14.557 16.5 12C16.5 10.743 15.984 9.607 15.154 8.791C14.721 8.366 14.474 7.787 14.474 7.181Z" fill="white"/><path d="M14.475 6V3.75C14.475 3.336 14.139 3 13.725 3H10.275C9.86102 3 9.52502 3.336 9.52502 3.75V6H14.475Z" fill="white"/></svg>

<svg class="color-immutable" width="24" height="24" viewBox="0 0 24 24" fill="none" xmlns="http://www.w3.org/2000/svg"><g clip-path="url(#a)"><path d="M0 22.5v-21C0 .675.675 0 1.5 0h21c.825 0 1.5.675 1.5 1.5v21c0 .825-.675 1.5-1.5 1.5h-21C.675 24 0 23.325 0 22.5Z" fill="#2D327D"/><path d="M5.636 18.739a.374.374 0 0 1-.265-.64l1.591-1.591a.375.375 0 0 1 .53.53l-1.591 1.591a.374.374 0 0 1-.265.11ZM18.364 18.739a.374.374 0 0 1-.265-.11l-1.591-1.591a.375.375 0 0 1 .53-.53l1.591 1.591a.375.375 0 0 1-.265.64ZM5.25 12.375H3a.375.375 0 0 1 0-.75h2.25a.375.375 0 0 1 0 .75ZM21 12.375h-2.25a.375.375 0 0 1 0-.75H21a.375.375 0 0 1 0 .75ZM12 21.375a.375.375 0 0 1-.375-.375v-2.25a.375.375 0 0 1 .75 0V21a.375.375 0 0 1-.375.375ZM14.474 7.181V6.75H9.526v.431c0 .61-.253 1.189-.687 1.618a4.486 4.486 0 0 0-1.334 3.409 4.513 4.513 0 0 0 4.28 4.287 4.5 4.5 0 0 0 3.369-7.704 2.258 2.258 0 0 1-.68-1.61ZM14.475 6V3.75a.75.75 0 0 0-.75-.75h-3.45a.75.75 0 0 0-.75.75V6h4.95Z" fill="#fff"/></g><defs><clipPath id="a"><path fill="#fff" d="M0 0h24v24H0z"/></clipPath></defs></svg>
